X: 1
M: 2/4
K: C
L: 1/8
CD EC | D2 G,2 | DE FD | E2 C2 | \\
w: Lá vai o com-bo-io lá vai a'a-pi-tar
CC B,A,| G,G, FF| E2 D2| C4 |]
w:Lá vai o com-bo-io p'ra bei-ra do mar
</abc>
<abc>
